X:10674
T:Memories of Texas Waltz
C:Bruce Osborne  --  April 20 1975
R:Waltz
L:1/8
M:3/4
K:Bb
FE|D2 F2 [DB][DB]|[F2d2] [E2c2] (3[DB][Dc][DB]|[G,3E3] [FB] [G2e2]|[F3d3] F [DB][Ec]|\
[F2d2] [F2d2] [d2g2]|[d3f3] F (3Bcd|[c3=e3] [ce] (3[Ae][ce][Ae]|[F3A3] G FE|
D2 F2 [DB][DB]|[F2d2] [E2c2] (3[DB][Dc][DB]|[G,3E3] [FB] [G2e2]|[F3d3] F [DB][Ec]|\
[F2d2] [F2d2] [d2g2]|(3[df][dg][df] [d2f2] [D2B2]|(3[Ec][Ed][Ec] [D2B2] [F2B2]|[B4d4]:|
|:(3[Bg][Bg][Bg]|[B2g2] [A3f3] [Bg]|[A4f4] (3[Ec][Ed][Ec]|[E2c2] [D3B3] [DA]|[D3B3] F (3Bdg|\
[A4f4] (3[cf][df][cf]|[A3f3] F [DB][Ec]|(3[Fd][Fe][Fd] [F2d2] [E2c2]|[D4B4] (3[Bg][Bg][Bg]|
[B2g2] [A3f3] [Ag]|[A4f4] (3[Ec][Ed][Ec]|[E2c2] [D3B3] [DA]|[D3B3] F (3Bdg|\
[A4f4] (3[cf][df][cf]|[A3f3] [DB] [DB][Ec]|[F2d2] [F2d2] [E2c2]|[D4B4]:|
